!!!!SEGMENT: pl-wtm--r-1661_stefani-jozef--o-przenajswietsza-mateczko-boza.krn
!!!cenid: 18xx:2055
!!!COM: Stefani, Józef
!!!COM-rismID: pe30024097
!!!CDT: 1800/04/16-1876/03/19
!!!CNT: Polish
!!!OTL: O przenajświętsza Mateczko Boża
!!!PDT:
!!!AGN: Secular
!!!OMD: Andantino
!!!SMS-siglum: PL-Wtm
!!!SMS-shelfmark: R 1661
!!!SMS-shelfwork: W
!!!SMS-variant:
!!!SMS-altvar:
!!!NIFC-rismSourceID: 1001114910
!!!NIFC-islandoraID:
!!!URL-pdf-islandora:
!!!URL-scan:
!!!ONB-nifc: UWAGA: No. 18, skan 0014
!!!AIN: 1 forte 1 vox
!!!key:
**kern	**kern	**dynam	**kern	**text	**text	**text
*part2	*part2	*part2	*part1	*part1	*part1	*part1
*staff3	*staff2	*	*staff1	*staff1	*staff1	*staff1
*Iforte	*Iempty	*	*Ivox	*	*	*
*I"Fortepian	*	*	*I"Spiew	*	*	*
*I'pf	*	*	*I'V	*	*	*
*>[A,B, B1, B, B1, B, B1, B, B1, B, B1, B, B1, B, B2, C]	*>[A,B, B1, B, B1, B, B1, B, B1, B, B1, B, B1, B, B2, C]	*	*>[A,B, B1, B, B1, B, B1, B, B1, B, B1, B, B1, B, B2, C]	*	*	*
*clefF4	*clefG2	*	*clefG2	*	*	*
*k[b-]	*k[b-]	*	*k[b-]	*	*	*
*F:	*F:	*	*F:	*	*	*
*M6/8	*M6/8	*	*M6/8	*	*	*
=1	=1	=1	=1	=1	=1	=1
*>A	*>A	*	*>A	*	*	*
*^	*	*	*	*	*	*
!	!	!	!	!LO:TX:a:i:t=No 18.	!	!	!
4rc	4.ryy	16r	.	4r	.	.	.
.	.	(>16c/LL	<	.	.	.	.
.	.	16d/	.	.	.	.	.
.	.	16e/	.	.	.	.	.
8rc	.	16f/	.	8r	.	.	.
.	.	16g/JJ)	[	.	.	.	.
!	!	!	!LO:DY:rj	!LO:TX:t=[segno]	!	!	!
*>B	*>B	*>B	*	*>B	*	*	*
16FF/LL	[4.FF\	8a/L 8c/	p	8a/ 8c/	1.) O	2.) Ty	3.) Z ot-
16C/	.	.	.	.	.	.	.
16F/	.	8a/ 8c/	.	8a/ 8c/	prze-	bry-	-chła-
16C/	.	.	.	.	.	.	.
16F/	.	8g/J 8B-/	.	8g/ 8B-/	-naj-	-lan-	-ni
16C/JJ	.	.	.	.	.	.	.
=2	=2	=2	=2	=2	=2	=2	=2
*	*	*^	*	*^	*	*	*
(<16FF/LL	4.FF\]	4b-/ 4d/	4.ryy	.	4b-/ 4d/	4.ryy	-świę-	-to-	mors-
16D/	.	.	.	.	.	.	.	.	.
16F/	.	.	.	.	.	.	.	.	.
16D/	.	.	.	.	.	.	.	.	.
16F/	.	8a/ 8c/	.	.	8a/ 8c/	.	-tsza,	-wą	-kiej,
16C/JJ)	.	.	.	.	.	.	.	.	.
(16BBB-/LL	4.ryy	16a/LL	8d\	.	16a/LL	8d\	ma-	świe-	z dzi-
16BB-/JJ	.	16g/JJ	.	.	16g/JJ	.	.	.	.
16BBB-/LL	.	8d/L	4B-\	.	8d/	8B-\	-tecz-	-cisz	-kich
16BB-/JJ)	.	.	.	.	.	.	.	.	.
(16CC/LL	.	8e/J	.	.	8e/	8B-\	-ko	ia-	fal
16C/JJ)	.	.	.	.	.	.	.	.	.
=3	=3	=3	=3	=3	=3	=3	=3	=3	=3
!!LO:LB:g=original
16FF/LL	[<4.FF\	8g/L	4A\	.	(8g/L	4A\	Bo-	-sno-	ło-
16C/	.	.	.	.	.	.	.	.	.
16F/	.	8f/J	.	.	8f/J)	.	.	.	.
16C/	.	.	.	.	.	.	.	.	.
16F/	.	8c/	8A\	.	8c/	8A\	-ża,	-ścią	-ża
16C/JJ	.	.	.	.	.	.	.	.	.
8ryy	8F/ 8FF/]	8a/ 8f/	4.ryy	.	8a/	8f\	Tyś	Ty	Co
8.F/L 8.FF/	4ryy	8.a/L 8.f/	.	.	8.a/	8.f\	prze-	ser-	zim-
16D/Jk 16DD/	.	16bn/Jk 16g/ 16f/	.	.	16bn/	16f\	-wo-	-ca	-ną
*v	*v	*	*	*	*	*	*	*	*
=4	=4	=4	=4	=4	=4	=4	=4	=4
*tremolo	*	*	*	*	*	*	*	*
!LO:TX:t=P:problem=mixed beam	!	!	!	!	!	!	!	!
(>16EE/LL	8.cc/L 8.e/	4.ryy	.	8.cc/L 8.e/	4.ryy	-dni-	lu-	ście-
16E\	.	.	.	.	.	.	.	.
16EE/	.	.	.	.	.	.	.	.
16E\	16bn/Jk 16d/	.	.	16bn/Jk 16d/	.	.	.	.
16EE/	8a/ 8c/	.	.	8a/ 8c/	.	-czko	-dzi	-le
16E\JJ)	.	.	.	.	.	.	.	.
!LO:TX:t=P:problem=mixed beam	!	!	!	!	!	!	!	!
(>16EE/LL	(16a/LL	4d\ 4Bn\	.	(16a/LL	8Bn\	w burż-	wie-	krew
16E\	16g#X/JJ	.	.	16g#X/JJ)	.	.	.	.
16EE/	8f#X/L)	.	.	8f#X/	8B\	-li-	-dziesz	że-
16E\	.	.	.	.	.	.	.	.
16EE/	8g#/J	8d\ 8B\	.	8g#/	8B\	-wej	z bez-	-gla-
16E\JJ)	.	.	.	.	.	.	.	.
*	*v	*v	*	*	*	*	*	*
=5	=5	=5	=5	=5	=5	=5	=5
!!LO:LB:g=original
(16E\LL	4bn/ 4e/ 4d/	.	4bn/ 4d/	4.ryy	to-	-dro-	-rzo-
16F\	.	.	.	.	.	.	.
16F#X\	.	.	.	.	.	.	.
16G#X\J)	.	.	.	.	.	.	.
8A\J	8a/ 8e/ 8c/	.	8a/ 8c/	.	-ni	-ża	-wi,
!LO:TX:t=P:problem=mixed beam	!	!LO:DY:rj	!	!	!	!	!
(16BBn/LL	8g/L 8d/	f	8g/	8d\	Bo	Ta-	Ty
16Bn\	.	.	.	.	.	.	.
16BB/	8.dd/ 8.g/ 8.d/	.	8.dd/	8.Bn\	na	-ką	ku
16B\	.	.	.	.	.	.	.
16BB/	.	.	.	.	.	.	.
16B\JJ)	16g/Jk 16d/	.	16g/	16g\	prze-	na-	zba-
=6	=6	=6	=6	=6	=6	=6	=6
!LO:TX:t=P:problem=mixed beam	!	!	!	!	!	!	!
(16C/LL	8.ee/L 8.g/	.	8.ee/L 8.g/	4.ryy	-czy-	-dzie-	-wie-
16c\	.	.	.	.	.	.	.
16C/	.	.	.	.	.	.	.
16c\	16dd/Jk 16f/	.	16dd/Jk 16f/	.	.	.	.
16C/	8cc/ 8e/	.	8cc/ 8e/	.	-stej,	-i	-nia,
16c\JJ)	.	.	.	.	.	.	.
*Xtremolo	*	*	*	*	*	*	*
8F/ 8FF/	8a/ 8f/	.	16a/LL	8f\	Ja-	grze-	Świe-
.	.	.	16ff/JJ	.	.	.	.
8D/L 8DD/	8ff/L 8a/ 8f/	.	8ff/	8f\	-snej	-iąc	-cisz
8G/J 8GG/	8bn/J 8g/ 8f/	.	8bn/	8f\	twej	mi-	brze-
=7	=7	=7	=7	=7	=7	=7	=7
!!LO:LB:g=original
(16GG/LL	4dd/ 4g/ 4f/	.	4dd/ 4f/	2ryy	skro-	-ło-	-go-
16AA-X/	.	.	.	.	.	.	.
16AAn/	.	.	.	.	.	.	.
16BBn/J)	.	.	.	.	.	.	.
8C/J	8cc/ 8e/	.	8cc/ 8e/	.	-ni	-ścią	-wi
8c\L 8C\	8cc/L 8e/	.	8cc/ 8e/	.	świe-	Tak	O
8.B-\ 8.BB\	8.dd/ 8.f/	.	8.dd/ 8.f/	8.ryy	-ci	po-	prze-
16G\Jk 16GG\	16ee/Jk 16cc/ 16b-/	.	16ee/	16b-\	prze-	-śród	-naj-
=8	=8	=8	=8	=8	=8	=8	=8
!	!	!LO:DY:rj	!	!	!	!	!
4F/ 4FF/	4ff\ 4cc\ 4a\	f	8.ff\ 8.a\	2ryy	-cu-	bu-	-świę-
.	.	.	16ff\ 16a\	.	-dny	-rży	-tsza!
8B-\ 8BB-\	(16dd/LL 16b-/	.	(16dd\LL 16b-\	.	blask	lśmi	o
.	16b-/JJ 16g/)	.	16b-\JJ 16g\)	.	.	.	.
16C/LL	16a/LL 16f/	.	16a/ 16f/	.	Gwia-	Gwia-	gwia-
16D/JJ	16ff/JJ 16a/	.	16ff/ 16f/	.	-zdo	-zda	-zdo
8BB-/L	8g/L 8f/	.	(8g/L	8f\L	mo-	mo-	mor-
8C/J	8cc/J 8e/	.	8cc/J)	8e\J	.	.	.
*	*	*	*v	*v	*	*	*
=9	=9	=9	=9	=9	=9	=9
!!LO:PB:g=original
8F\	8f/	.	4f/	-rza!	-rza!	-rza,
8r	8r	.	.	.	.	.
8c\ 8C\	8cc\	.	8r	.	.	.
16C\LL	16cc/LL 16e'>/	.	4r	.	.	.
16c\JJ	16cc/JJ 16e'>/	.	.	.	.	.
16BBn\LL	16dd/LL 16f'>/	.	.	.	.	.
16Bn\JJ	16dd/JJ 16f'>/	.	.	.	.	.
16BB-X\LL	16ee/LL 16cc/ 16g'>/	.	8r	.	.	.
16B-X\JJ	16ee/JJ 16cc/ 16g'>/	.	.	.	.	.
=10	=10	=10	=10	=10	=10	=10
*	*^	*	*	*	*	*
!	!	!	!LO:DY:rj	!	!	!	!
(16AA\LL	(8.gg/L	4cc\ 4f\	f	2.r	.	.	.
16A\	.	.	.	.	.	.	.
16AA\	.	.	.	.	.	.	.
16A\JJ	16ff/L	.	.	.	.	.	.
16BB-\LL	16dd/	16b-\LL	.	.	.	.	.
16B-\JJ)	16b-/JJ)	16g\JJ	.	.	.	.	.
(16C\LL	(24a/LL	4f\	.	.	.	.	.
.	24b-/	.	.	.	.	.	.
16c\JJ	.	.	.	.	.	.	.
.	24a/JJ)	.	.	.	.	.	.
16C\LL	8g/L	.	.	.	.	.	.
16c\JJ)	.	.	.	.	.	.	.
8C\	8cc/J	8e\	.	.	.	.	.
*	*v	*v	*	*	*	*	*
=11	=11	=11	=11	=11	=11	=11
!!LO:LB:g=original
8F\	8f/	.	2.r	.	.	.
8r	8r	.	.	.	.	.
8r	8ccT\	.	.	.	.	.
.	16qqbn/LL	.	.	.	.	.
.	16qqcc/JJ	.	.	.	.	.
8A\ 8F\ 8D\	8ff\L	.	.	.	.	.
8r	16r	.	.	.	.	.
.	16a\Jk	.	.	.	.	.
8F/ 8D/ 8GG/	8bt\	.	.	.	.	.
.	(16qqa/LL	.	.	.	.	.
.	16qqb/JJ)	.	.	.	.	.
=12	=12	=12	=12	=12	=12	=12
!LO:TX:t=1. 2. 3. 4. 5. 6.	!	!	!	!	!	!
*>B1	*>B1	*	*>B1	*	*	*
8E/ 8C/	16cc/LL	.	4r	.	.	.
.	(16c/	.	.	.	.	.
8r	16d/	.	.	.	.	.
.	16e/	.	.	.	.	.
!	!	!	!LO:TX:t=[segno]:problem=znak segno na kresce taktowej	!	!	!
8r	16f/	.	8r	.	.	.
!	!LO:TX:t=[segno]:problem=znak segno na kresce taktowej	!	!	!	!	!
.	16g/JJ)	.	.	.	.	.
=13:|!	=13:|!	=13:|!	=13:|!	=13:|!	=13:|!	=13:|!
!LO:TX:t=7.	!	!	!	!	!	!
*>B2	*>B2	*	*>B2	*	*	*
8F\	8f/	.	2.r	.	.	.
8r	8r	.	.	.	.	.
8r	8ccT\	.	.	.	.	.
.	16qqbn/LL	.	.	.	.	.
.	16qqcc/JJ	.	.	.	.	.
8A\ 8F\ 8D\	8ff\ 8a\	.	.	.	.	.
8r	8r	.	.	.	.	.
8D-X/ 8DD-X/	8bn/ 8g/ 8f/	.	.	.	.	.
=14	=14	=14	=14	=14	=14	=14
!!LO:LB:g=original
*>C	*>C	*	*>C	*	*	*
8C/ 8CC/	8cc/ 8g/ 8e/	.	2.r	.	.	.
8r	8r	.	.	.	.	.
!	!	!LO:DY:rj	!	!	!	!
8C/ 8CC/	8ee\ 8cc\ 8b-X\ 8g\	f	.	.	.	.
!	!LO:TX:t=P:problem=po nutach jeszcze trzy zwrotki zapisane w blokach, które pomijam zgodnie z ustaleniami z problemów	!	!	!	!	!
8F/ 8FF/	8ff\ 8cc\ 8a\	.	.	.	.	.
8r	8r	.	.	.	.	.
8r	8r	.	.	.	.	.
==	==	==	==	==	==	==
*-	*-	*-	*-	*-	*-	*-
!!!system-decoration: s1{(s2,s3)}
!!!RDF**kern: > = above
!!!RDF**kern: < = below
!!!EED: Andrzej Borzym
!!!EEV: 2021-05-13
!!!ENC: Mateusz Solarz
!!!END: 2021-04-26
